frontend/public/icons/light.svg

<svg width="16" height="auto" viewBox="0 0 16 16" fill="none" xmlns="http://www.w3.org/2000/svg">
<path d="M8.5127 2.67976C8.5127 2.40353 8.27665 2.16748 8.00042 2.16748C7.72419 2.16748 7.49316 2.40353 7.49316 2.67976V3.69929C7.49316 3.97552 7.72419 4.20654 8.00042 4.20654C8.27665 4.20654 8.5127 3.97552 8.5127 3.69929V2.67976ZM10.5216 4.54806C10.3258 4.74393 10.3258 5.07038 10.5266 5.26625C10.7175 5.46212 11.049 5.46212 11.2448 5.26123L11.9681 4.53802C12.1639 4.34717 12.1639 4.01067 11.9681 3.8148C11.7722 3.62395 11.4457 3.62395 11.2499 3.81982L10.5216 4.54806ZM4.756 5.26123C4.94685 5.46212 5.27832 5.46212 5.47419 5.26625C5.67006 5.0754 5.67006 4.73891 5.47921 4.54806L4.756 3.81982C4.56515 3.62898 4.23368 3.62395 4.03781 3.8148C3.84194 4.01067 3.84194 4.34717 4.03278 4.53299L4.756 5.26123ZM8.00042 5.13567C6.55399 5.13567 5.35366 6.33099 5.35366 7.78244C5.35366 9.23389 6.55399 10.4292 8.00042 10.4292C9.44685 10.4292 10.6422 9.23389 10.6422 7.78244C10.6422 6.33099 9.44685 5.13567 8.00042 5.13567ZM13.0981 8.29471C13.3743 8.29471 13.6053 8.05866 13.6053 7.78244C13.6053 7.50621 13.3743 7.27518 13.0981 7.27518H12.0785C11.8023 7.27518 11.5713 7.50621 11.5713 7.78244C11.5713 8.05866 11.8023 8.29471 12.0785 8.29471H13.0981ZM2.90778 7.27518C2.62653 7.27518 2.39551 7.50621 2.39551 7.78244C2.39551 8.05866 2.62653 8.29471 2.90778 8.29471H3.92229C4.19852 8.29471 4.43457 8.05866 4.43457 7.78244C4.43457 7.50621 4.19852 7.27518 3.92229 7.27518H2.90778ZM11.2398 10.3036C11.0439 10.1078 10.7175 10.1128 10.5216 10.3087C10.3258 10.4995 10.3258 10.826 10.5266 11.0269L11.2549 11.7501C11.4457 11.9459 11.7772 11.9409 11.9731 11.745C12.1639 11.5492 12.1639 11.2227 11.9681 11.0269L11.2398 10.3036ZM4.03278 11.0218C3.83691 11.2177 3.83189 11.5492 4.02274 11.74C4.21861 11.9359 4.55511 11.9409 4.74595 11.7501L5.47419 11.0269C5.67006 10.831 5.67006 10.4995 5.47921 10.3087C5.28334 10.1128 4.95187 10.1128 4.756 10.3036L4.03278 11.0218ZM8.5127 11.8656C8.5127 11.5894 8.27665 11.3583 8.00042 11.3583C7.72419 11.3583 7.49316 11.5894 7.49316 11.8656V12.8851C7.49316 13.1613 7.72419 13.3974 8.00042 13.3974C8.27665 13.3974 8.5127 13.1613 8.5127 12.8851V11.8656Z" fill="white"/>
</svg>

<svg xmlns="http://www.w3.org/2000/svg" width="16" height="auto" fill="none" viewBox="0 0 16 16"><path fill="#fff" d="M8.513 2.68A.521.521 0 0 0 8 2.167a.517.517 0 0 0-.507.513V3.7c0 .276.231.507.507.507a.517.517 0 0 0 .513-.508V2.68Zm2.009 1.868a.508.508 0 0 0 .723.713l.723-.723a.519.519 0 0 0 0-.723.517.517 0 0 0-.718.005l-.728.728Zm-5.766.713c.19.201.522.201.718.005a.517.517 0 0 0 .005-.718l-.723-.728a.522.522 0 0 0-.718-.005.517.517 0 0 0-.005.718l.723.728ZM8 5.136a2.663 2.663 0 0 0-2.646 2.646c0 1.452 1.2 2.647 2.646 2.647a2.66 2.66 0 0 0 2.642-2.647A2.66 2.66 0 0 0 8 5.136Zm5.098 3.159a.517.517 0 0 0 .507-.513.512.512 0 0 0-.507-.507h-1.02a.512.512 0 0 0-.507.507c0 .277.231.513.508.513h1.02Zm-10.19-1.02a.513.513 0 0 0-.512.507c0 .277.23.513.512.513h1.014a.521.521 0 0 0 .513-.513.517.517 0 0 0-.513-.507H2.908Zm8.332 3.029a.508.508 0 0 0-.713.723l.728.723c.19.196.522.19.718-.005a.517.517 0 0 0-.005-.718l-.728-.723Zm-7.207.718a.517.517 0 0 0-.01.718c.196.196.532.2.723.01l.728-.723a.517.517 0 0 0 .005-.718.523.523 0 0 0-.723-.005l-.723.718Zm4.48.844A.517.517 0 0 0 8 11.358a.512.512 0 0 0-.507.508v1.02c0 .275.231.511.507.511a.521.521 0 0 0 .513-.512v-1.02Z"/></svg>
